X: 18815
T: Iitin Tiltu Polkka
R: polka
M: 2/4
K: Aminor
ea a/g/f/e/|fd df|ee/f/ e/d/c/B/|cA A2|
ea a/g/f/e/|fd df|ee/f/ e/d/c/B/|cA A>B||
cc cB/c/|dd dc/d/|ee/f/ e/d/c/B/|cA A>B|
cc cB/c/|dd dc/d/|ee/f/ e/d/c/B/|cA A2||
cA/c/ ec|BE E/D/E|E^G Bd|c/d/c/B/ A>B|
cA/c/ ec|BE E/D/E|E^G Bd|c/d/c/B/ A2||

